X:1
T: The Wicker Man
C:
R:Strathspey
Q: 128
K:Dm
M:4/4
L:1/16
|:D4 A3G F3G AF3|Ec3 C3D E3F GE3|F4 G4 Ad3 A3G|((3F2E2D2) ^C3E FD3 D4|
D4 A3G F3G AF3|Ec3 C3D E3F GE3|F4 G4 Ad3 A3G|((3F2E2D2) ^C3E FD3 D4|
A4 F3G A3B cA3|Gc3 G3F E3F GE3|D3C D3E F3E F3G|Ad3 ^ce3 d4 z4|
A3G F3G A3B cA3|Gc3 =B3d c2G2 F2E2|FA3 GB3 Ad3 A3G|((3F2E2D2) ^C3E FD3 D4:|
